static/assets/img/icons/theme/code/loading.svg

<svg height="24" viewBox="0 0 24 24" width="24" xmlns="http://www.w3.org/2000/svg"><g fill="none" fill-rule="evenodd"><path d="m0 0h24v24h-24z" opacity="0"/><path d="m12 4v2c-3.3137085 0-6 2.6862915-6 6s2.6862915 6 6 6 6-2.6862915 6-6c0-1.0396804-.2639115-2.03873565-.7597422-2.92486074l1.7453474-.97660777c.6617484 1.18264559 1.0143948 2.51761271 1.0143948 3.90146851 0 4.418278-3.581722 8-8 8s-8-3.581722-8-8 3.581722-8 8-8z" fill="#000" fill-rule="nonzero" transform="matrix(-1 0 0 1 24 0)"/></g></svg>

<svg width="24px" height="24px" viewBox="0 0 24 24" version="1.1" xmlns="http://www.w3.org/2000/svg" xmlns:xlink="http://www.w3.org/1999/xlink">
    <title>Icon For Loading</title>
    <g stroke="none" stroke-width="1" fill="none" fill-rule="evenodd">
        <g>
            <polygon points="0 0 24 0 24 24 0 24" opacity="0"></polygon>
        </g>
        <path d="M12,4 L12,6 C8.6862915,6 6,8.6862915 6,12 C6,15.3137085 8.6862915,18 12,18 C15.3137085,18 18,15.3137085 18,12 C18,10.9603196 17.7360885,9.96126435 17.2402578,9.07513926 L18.9856052,8.09853149 C19.6473536,9.28117708 20,10.6161442 20,12 C20,16.418278 16.418278,20 12,20 C7.581722,20 4,16.418278 4,12 C4,7.581722 7.581722,4 12,4 Z" fill="#000000" fill-rule="nonzero" transform="translate(12.000000, 12.000000) scale(-1, 1) translate(-12.000000, -12.000000) "></path>
    </g>
</svg>
